packages/Linearicons/src/ListIcon/index.svg

<svg version="1.1" xmlns="http://www.w3.org/2000/svg" width="20" height="20" viewBox="0 0 20 20">
<path d="M19.5 16h-15c-0.276 0-0.5-0.224-0.5-0.5s0.224-0.5 0.5-0.5h15c0.276 0 0.5 0.224 0.5 0.5s-0.224 0.5-0.5 0.5z"></path>
<path d="M19.5 11h-15c-0.276 0-0.5-0.224-0.5-0.5s0.224-0.5 0.5-0.5h15c0.276 0 0.5 0.224 0.5 0.5s-0.224 0.5-0.5 0.5z"></path>
<path d="M19.5 6h-15c-0.276 0-0.5-0.224-0.5-0.5s0.224-0.5 0.5-0.5h15c0.276 0 0.5 0.224 0.5 0.5s-0.224 0.5-0.5 0.5z"></path>
<path d="M1.5 7c-0.827 0-1.5-0.673-1.5-1.5s0.673-1.5 1.5-1.5 1.5 0.673 1.5 1.5-0.673 1.5-1.5 1.5zM1.5 5c-0.276 0-0.5 0.224-0.5 0.5s0.224 0.5 0.5 0.5 0.5-0.224 0.5-0.5-0.224-0.5-0.5-0.5z"></path>
<path d="M1.5 12c-0.827 0-1.5-0.673-1.5-1.5s0.673-1.5 1.5-1.5 1.5 0.673 1.5 1.5c0 0.827-0.673 1.5-1.5 1.5zM1.5 10c-0.276 0-0.5 0.224-0.5 0.5s0.224 0.5 0.5 0.5 0.5-0.224 0.5-0.5-0.224-0.5-0.5-0.5z"></path>
<path d="M1.5 17c-0.827 0-1.5-0.673-1.5-1.5s0.673-1.5 1.5-1.5 1.5 0.673 1.5 1.5-0.673 1.5-1.5 1.5zM1.5 15c-0.276 0-0.5 0.224-0.5 0.5s0.224 0.5 0.5 0.5 0.5-0.224 0.5-0.5-0.224-0.5-0.5-0.5z"></path>
</svg>

<svg xmlns="http://www.w3.org/2000/svg" viewBox="0 0 20 20">
  <path d="M19.5 16h-15a.5.5 0 010-1h15a.5.5 0 010 1zm0-5h-15a.5.5 0 010-1h15a.5.5 0 010 1zm0-5h-15a.5.5 0 010-1h15a.5.5 0 010 1zm-18 1C.673 7 0 6.327 0 5.5S.673 4 1.5 4 3 4.673 3 5.5 2.327 7 1.5 7zm0-2a.5.5 0 100 1 .5.5 0 000-1zm0 7C.673 12 0 11.327 0 10.5S.673 9 1.5 9 3 9.673 3 10.5 2.327 12 1.5 12zm0-2a.5.5 0 100 1 .5.5 0 000-1zm0 7C.673 17 0 16.327 0 15.5S.673 14 1.5 14s1.5.673 1.5 1.5S2.327 17 1.5 17zm0-2a.5.5 0 100 1 .5.5 0 000-1z"/>
</svg>
